!!!ONB: MCCC : IJB0016_01 : Extracted Monophonic Melody
!!!COM: Brahms, Johannes
!!!OPR: Clarinet Sonata No.2
!!!OMV: 1
!!!SCT: Op.120 No.2
!!!ODT: 1894///
**kern
*staff1
=1
*clefG2
*k[b-e-a-]
*E-:
*M4/4
4.ee-
8dd
8ff
8ee-
8g
8cc
=2
2a-
4d
8r
8c
=3
4.e-
8B-
4b-
8r
8d
=4
4.f
8c
4cc
8r
8f
=5
4.aa-
8gg
8ee
8ff
8g
8a-
=6
4.ee-
8dd
8b
8cc
8e
8f
=7
4e-[
16e-]
16d
16f
16a-
8cc
8b
8b
8b-
=8
8b-
8a
8b-
8g-
4f
8r
8F
=9
12a-
12g
12e
12f
12G
12A-
12e-
12d
12B
12c
12E
12F
=10
[4E-
16E-]
16D
16F
16A-
16B-
16d
16f
16a-
20b-
20dd
20ff
20aa-
20ccc
=11
4bb-
4r
8r
8B-
8g
8cc
=12
2a-
8r
8A-
8d
8cc
=13
4.b-
8B-
4b-
8ee-
8dd
=14
4.cc
8c
4cc
8ff
8ee-
=15
2dd
2r
=16
4.aaa-
8gg
4ggg[
16ggg]
16fff
16ddd
16eee-
=17
4.ee-
8ccc
4cc
4aa-
=18
4.bb-
8aa
8ccc
8bb-
8dd-
8gg-
=19
12ff
12ee-
12dd
16ff
16ee-
16g-
16cc
12b-
12a-
12g
16b-
16a-
16B
16f
=20
12e-
12d-
12c
12e-
12d-
12c
8e-
8d-
4d-
=21
2B-]
4E
4r
=22
4F
4f
8r
8f
8f
8g
=23
4g
4c
8r
8c
8f
8c
=24
4.d
8B-
4.B-
8A
=25
4A
4B-
4c
4r
=26
4cc
4dd-
4ee-
4r
=27
4A-
4B-
4.c
8F
=28
4.F
8f
4f
4g
=29
4g
4c
4.c
8d
=30
4d[
12d]
12e-
12c
4B-[
16B-]
16A
8c
=31
4G
4G-
8F
8B-
8d
8f
=32
4f[
12f]
12g
12e-
4d[
16d]
16c
8e-
=33
4A
4G
8F
8A
8A
8d
=34
4d
2f
4r
=35
2r
4r
8r
8d
=36
4d[
12d]
12e-
12c
4B-[
16B-]
16A
8c
=37
12d
12e-
12c
12B-
12A
12c
12e-
12f
12d
12c
12B
12d
=38
16f
16g
16c
16e-
16g
16cc
16ee-
16gg
4.ccc
8aa
=39
1r
=40
4r
4bb-
4aa
4ee-
=41
8aa
8gg
8dd
8gg
4ff
4cc
=42
8r
8dd
8ee-
8b-
16dd
16cc
16g-
16cc
16f
16b-
16dd
16ff
=43
4bb-
4E
4F
4E-
=44
12D
12F
12B-
12d
12f
12d
4e-
4r
=45
12D
12G
12A
12B-
12d
12B-
4c
4r
=46
8r
8dd
8ee-
8b-
8ee-
8dd
8ee-
8b-
=47
8r
8dd-
8dd
8a
8dd
8dd-
8gg-
8ee
=48
2r
4E-
4e-
=49
2r
4G
4g
=50
2r
4B-
4b-
=51
4r
4f
4ff
4ff[
=52
4.ff]
8ee
8gg
8ff
8a
8dd
=53
4cc
8b-
8a
8cc
8b-
8d
8a
=54
4g
8f
8e
4g
8f
8e
=55
12g
12f
12e
12g
12f
12d
8c
8B-
8B-
8A-
=56
8G
8B-
2g
4r
=57
8D
8F
2A-
4r
=58
2bb-
4ee
8r
8c
=59
2.e-
4r
=60
4.ddd
8bb-
4.dd
8ff
=61
4.fff
8ddd
4.ff
8aa
=62
4.aaa
8aa-
4.aaa-
8gg
=63
4.gg
8ff#
8aa
8gg
8b-
8ee-[
=64
12ee-]
12dd
12dd-
12ee-
12dd
12cc#
16ee
16dd
16b-
16g
16e
16d
16B-
16G
=65
2D
2D
=66
2D
2D
=67
2D
2D
=68
2D
2r
=69
4D
4d
8r
8d
8d
8e-
=70
4e-
4A
8r
8dd-
8dd-
8dd
=71
4.dd
8gg
4.gg
8b
=72
4b
4dd
2dd[
=73
4dd]
4r
4r
8g-
8b
=74
8a
8g
8B
8e
8d
8c
12G
12c
12G
=75
4B
4r
4r
8b
8ee
=76
8dd
8cc
8g
8cc
8b
8a
4g
=77
2.g
12G
12c
12G
=78
12B
12G
12d
12B
12g
12d
12b
12g
12dd
8ff
8ee-
=79
4dd
4r
4r
12G
12c
12G
=80
12B
12G
12d
12B
12g
12d
12b
12g
12dd
4r
=81
12B
12g
12d
12b
12g
12dd
12b
12gg
12dd
4r
=82
2r
12b
12d
12g
12B
12d
12G
=83
12B
12D
12G
4r
12B-
12g-
12d-
12b-
12g-
12dd-
=84
12b-
12gg-
12dd-
4r
2r
=85
12dd-
12g-
12b-
12d-
12g-
12B-
12d-
12G-
12B-
4r
=86
12A
12f
12c
12a
12f
12cc
12a
12ff
12cc
4r
=87
2r
4r
8bb-
8aa
=88
8aa
8gg
8bb-
8aa
4aa
4gg
=89
4ff
8ff
8gg
4gg
4ff[
=90
8ff]
8ee
8ff
16gg-
16aa-
4aa-
4gg[
=91
8gg]
8ff#
8gg
8bb-
2aa
=92
12aa
12ddd
12aa
12ccc
12ff
12bb-
12a
12dd
12a
12dd
12a
12cc
=93
4b-
4r
4r
8e
8a
=94
4g
4g-
8g-
8b
8a
8g
=95
4.f#
8g
8dd-
8b
8b-
8g-
=96
8dd
8cc
4b
2r
=97
2r
4b-
4dd-[
=98
4dd-]
4r
2r
=99
2r
4dd
4ff[
=100
4ff]
4cc
4dd
4ee-[
=101
4ee-]
4aa-
4gg
4cc
=102
4.b-
8a
4.dd
8cc
=103
4.ee-
8dd
8ff
8ee-
8g
8cc
=104
2a-
4d
8r
8c
=105
4.e-
8B-
4b-
8r
8d
=106
4.f
8c
4cc
8r
8f
=107
4.aa-
8gg
8ee
8ff
8g
8a-
=108
4.ee-
8dd
8b
8cc
8e
8f
=109
4e-[
16e-]
16d
16f
16a-
8cc
8b
8b
8b-
=110
8b-
8a
8b-
8g-
4f
8r
8F
=111
12a-
12g
12e
12f
12G
12A-
12e-
12d
12B
12c
12E
12F
=112
[4E-
16E-]
16D
16F
16A-
16B-
16d
16f
16a-
20b-
20dd
20ff
20aa-
20ccc
=113
2bb-
4r
4ee-
=114
4.ccc
8gg
8bb-
8aa-
8cc
8ff
=115
4.ee-
8aa
8ccc
8bb-
12dd
12gg
12ff
=116
2ee-
2r
=117
4.aa-
8gg
8bb-
8aa-
8b
8ff
=118
12ee-
12dd-
12cc
12ee-
12dd-
12b-
12a-
12g-
12f
12a-
12g-
12e
=119
8d-
8B-
2A-
4G-
=120
4G-
4g-
8r
8g-
8g-
8a-
=121
4a-
4d-
8r
8d-
8g-
8d-
=122
4.e-
8B
4.B
8B-
=123
4B-
4B
4d-
4r
=124
4dd-
4ee-
4ff
4r
=125
4d-
4e-
4.f
8B-
=126
4.B-
8b-
4b-
4cc
=127
4cc
4f
4.f
8g
=128
4g[
12g]
12a-
12f
4e-[
16e-]
16d
8f
=129
4c
4B
8B-
8e-
8g
8b-
=130
4b-[
12b-]
12cc
12a-
4g[
16g]
16f
8a-
=131
4d
4c
8B-
8d
8d
8g
=132
4g
2b-
4r
=133
2r
4r
8r
8g
=134
4g[
12g]
12a-
12f
4e-[
16e-]
16d
8f
=135
12g
12a-
12f
12e-
12d
12f
12a-
12b-
12g
12f
12e
12g
=136
16b-
16cc
16c
16f
16a-
16cc
16ff
16gg
4.aa-
8dd
=137
1r
=138
4r
4ee-
4dd
4a-
=139
8dd
8cc
8g
8cc
4b-
4f
=140
8r
8g
8a-
8e-
16g
16f
16B
16f
16B-
16e-
16g
16b-
=141
4ee-
4A
4B-
4A-
=142
12G
12B-
12e-
12g
12b-
12g
4a-
4r
=143
12E-
12G
12c
12e-
12g
12e-
4f
4r
=144
8r
8gg
8aa-
8ee-
8aa-
8gg
8aa-
8ee-
=145
8r
8gg-
8gg
8dd
8gg
8gg-
8bb
8aa
=146
2r
4A-
4a-
=147
2r
4c
4cc
=148
2r
4e-
4ee-
=149
4r
4b-
4bb-
4bb-[
=150
4.bb-]
8aa
8ccc
8bb-
8dd
8gg
=151
4ff
8ee-
8dd
8ff
8ee-
8g
8dd
=152
4cc
8b-
8a
4cc
8b-
8a
=153
12cc
12b-
12a
12cc
12b-
12g
8f
8e-
8e-
8d-
=154
2B
8r
8B
8a-
8dd-
=155
2a
8r
8A
8e-
8dd-
=156
4.b
8B
4b
8ee
8ee-
=157
4dd-
8gg-
8ee
8ee-
4aa-
8aa-
=158
4aa-[
12aa-]
12aa
12gg-
4ee[
16ee]
16ee-
32ee-
16.gg-
=159
4gg-[
12gg-]
12aa-
12ee
4ee-[
16ee-]
16dd-
8ee
=160
4b[
12b]
12a
12dd-
4e[
16e]
16e-
8g-
=161
1r
=162
12r
12B-
12G
12e-
12B-
12g
12r
12e-
12c
12a-
12e-
12cc
=163
12r
12A-
12F
12d
12A-
12f
12r
12d
12B-
12g
12d
12b-
=164
12r
12G
12E-
12c
12G
12e-
12r
12e-
12c
12a-
12e-
12cc[
=165
8cc]
8b-
8a-
8f
4c
4d
=166
4e-
4r
4r
8cc
8dd
=167
4ee-
4r
4r
8ee-
8ff
=168
4gg
4r
4r
8e-
8f
=169
4g
4r
4r
8G
8F
=170
12E-
12e-
12B-
12g
12e-
12b-
12g
12ee-
12a
12ff
12b-
12bb-[
=171
8bb-]
8gg
8ee-
8g
8b-
8g
8e-
8G
=172
4B-
4r
4G
4r
=173
1E-
==
*-
